img/logo.svg

<svg width="164" height="37" viewBox="0 0 164 37" fill="none" xmlns="http://www.w3.org/2000/svg">
<path fill-rule="evenodd" clip-rule="evenodd" d="M38.2595 3.06239C37.3194 2.59024 36.1561 2.45109 34.8561 2.68757C34.0546 2.83396 33.2 3.12352 32.3138 3.56511C31.463 3.99061 30.6484 4.52389 29.8766 5.14244L33.0075 6.71574C33.7793 6.0972 34.5939 5.56391 35.4438 5.13922C36.33 4.69683 37.1836 4.40726 37.9861 4.26087C39.2861 4.02439 40.4494 4.16354 41.3895 4.6357L38.2595 3.06239Z" fill="#F0A72E"/>
<mask id="mask0" mask-type="alpha" maskUnits="userSpaceOnUse" x="0" y="0" width="31" height="35">
<path fill-rule="evenodd" clip-rule="evenodd" d="M0 0.609169H30.3026V34.2347H0V0.609169Z" fill="white"/>
</mask>
<g mask="url(#mask0)">
<path fill-rule="evenodd" clip-rule="evenodd" d="M27.1726 1.17282C26.0865 0.626667 24.7409 0.466602 23.2382 0.74008C22.3102 0.908993 21.3217 1.2436 20.2961 1.75597C18.5898 2.60858 16.9876 3.84728 15.5983 5.31199C13.0421 8.00736 11.2065 11.4677 10.762 14.6891C9.99487 14.8387 9.17285 15.1226 8.32945 15.5441C6.85838 16.2785 5.47751 17.345 4.28075 18.6063C1.71614 21.3064 -0.00971918 24.8971 -0.000420372 28.0228C0.00794856 30.3023 0.9369 31.9069 2.4368 32.6606L5.56678 34.2347C4.06595 33.4803 3.137 31.8756 3.12956 29.5961C3.11933 26.4704 4.84612 22.8798 7.4098 20.1796C8.60749 18.9183 9.98743 17.8518 11.4594 17.1174C12.3019 16.6959 13.1248 16.412 13.8911 16.2624C14.3356 13.041 16.1721 9.58067 18.7283 6.8853C20.1176 5.42058 21.7188 4.18188 23.4261 3.32928C24.4508 2.81691 25.4393 2.4823 26.3673 2.31338C27.8709 2.0391 29.2155 2.19997 30.3025 2.74612L27.1726 1.17282Z" fill="#F0A72E"/>
</g>
<path fill-rule="evenodd" clip-rule="evenodd" d="M23.4258 3.32944C28.2668 0.911568 32.2895 2.44465 33.0073 6.71574C33.7791 6.0972 34.5937 5.56392 35.4436 5.13922C40.0577 2.83476 43.8125 4.68557 43.8274 9.27115C43.8423 13.8575 40.1116 19.4462 35.4975 21.7506L11.5131 33.729C6.89254 36.0366 3.14419 34.1826 3.12932 29.5962C3.11444 25.0098 6.83768 19.4252 11.4583 17.1176C12.3026 16.6961 13.1246 16.4122 13.8908 16.2625C14.5771 11.2901 18.5774 5.75052 23.4258 3.32944Z" fill="#FFCA00"/>
<path fill-rule="evenodd" clip-rule="evenodd" d="M62.7052 5.31441C61.7651 4.84225 60.6018 4.7031 59.3019 4.93958C58.4994 5.08597 57.6457 5.37554 56.7586 5.81712C55.9087 6.24182 55.0942 6.77591 54.3224 7.39445L57.4523 8.96775C58.2241 8.34921 59.0387 7.81512 59.8896 7.39123C60.7748 6.94804 61.6294 6.65928 62.4309 6.51288C63.7318 6.27641 64.8942 6.41556 65.8343 6.88771L62.7052 5.31441Z" fill="#D43E3E"/>
<path fill-rule="evenodd" clip-rule="evenodd" d="M51.6138 3.41977C50.5277 2.87361 49.1821 2.71274 47.6795 2.98622C46.7514 3.15514 45.7648 3.48974 44.741 4.00131C43.0403 4.8507 41.4427 6.08618 40.0563 7.54848C37.4982 10.2463 35.6589 13.713 35.2135 16.9376C34.4398 17.0905 33.6243 17.3712 32.7744 17.7959C31.3052 18.5294 29.9262 19.596 28.7294 20.8564C26.1648 23.5566 24.4352 27.1488 24.4454 30.2745C24.4529 32.5532 25.3837 34.1563 26.8827 34.9108L30.0126 36.4833C28.5127 35.7296 27.5819 34.1265 27.5745 31.8478C27.5643 28.7221 29.2948 25.1299 31.8585 22.4297C33.0561 21.1685 34.4352 20.1027 35.9034 19.3692C36.7552 18.9445 37.5698 18.6638 38.3434 18.5109C38.7889 15.2855 40.6282 11.8196 43.1863 9.12179C44.5727 7.65948 46.1703 6.42401 47.871 5.57381C48.8939 5.06305 49.8814 4.72844 50.8085 4.55953C52.3121 4.28605 53.6567 4.44692 54.7438 4.99307L51.6138 3.41977Z" fill="#D43E3E"/>
<path fill-rule="evenodd" clip-rule="evenodd" d="M47.8706 5.57397C52.7116 3.1569 56.7352 4.69643 57.4521 8.96751C58.2239 8.34897 59.0385 7.81569 59.8893 7.39099C64.5034 5.08653 68.2573 6.93734 68.2722 11.5229C68.2871 16.1093 64.5573 21.6979 59.9433 24.0024L35.9579 35.9807C31.3448 38.2852 27.5899 36.4344 27.5751 31.848C27.5602 27.2616 31.2899 21.673 35.904 19.3685C36.7548 18.9446 37.5703 18.6639 38.3431 18.5103C39.0293 13.5386 43.0297 7.99184 47.8706 5.57397Z" fill="#FA7564"/>
<path d="M81.9397 26V12.92H84.5597L86.8797 19.32C87.0264 19.7333 87.1664 20.16 87.2997 20.6C87.4331 21.0267 87.5731 21.4533 87.7197 21.88H87.7997C87.9464 21.4533 88.0797 21.0267 88.1997 20.6C88.3331 20.16 88.4731 19.7333 88.6197 19.32L90.8797 12.92H93.5197V26H91.3797V20.02C91.3797 19.7133 91.3864 19.38 91.3997 19.02C91.4264 18.66 91.4531 18.3 91.4797 17.94C91.5064 17.5667 91.5397 17.2067 91.5797 16.86C91.6197 16.5 91.6531 16.1667 91.6797 15.86H91.5997L90.5397 18.9L88.3997 24.78H87.0197L84.8597 18.9L83.8197 15.86H83.7397C83.7664 16.1667 83.7931 16.5 83.8197 16.86C83.8597 17.2067 83.8931 17.5667 83.9197 17.94C83.9597 18.3 83.9864 18.66 83.9997 19.02C84.0264 19.38 84.0397 19.7133 84.0397 20.02V26H81.9397ZM98.6723 26.24C97.8056 26.24 97.1056 25.98 96.5723 25.46C96.0389 24.9267 95.7723 24.2267 95.7723 23.36C95.7723 22.84 95.8789 22.38 96.0923 21.98C96.3189 21.5667 96.6656 21.2133 97.1323 20.92C97.6123 20.6267 98.2123 20.38 98.9323 20.18C99.6656 19.98 100.539 19.8267 101.552 19.72C101.539 19.4667 101.499 19.2267 101.432 19C101.379 18.76 101.279 18.5533 101.132 18.38C100.999 18.1933 100.819 18.0533 100.592 17.96C100.366 17.8533 100.086 17.8 99.7523 17.8C99.2723 17.8 98.7989 17.8933 98.3323 18.08C97.8789 18.2667 97.4323 18.4933 96.9923 18.76L96.1523 17.22C96.6989 16.8733 97.3123 16.5733 97.9923 16.32C98.6723 16.0667 99.4056 15.94 100.192 15.94C101.419 15.94 102.332 16.3067 102.932 17.04C103.546 17.76 103.852 18.8067 103.852 20.18V26H101.952L101.792 24.92H101.712C101.272 25.2933 100.799 25.6067 100.292 25.86C99.7989 26.1133 99.2589 26.24 98.6723 26.24ZM99.4123 24.44C99.8123 24.44 100.172 24.3467 100.492 24.16C100.826 23.9733 101.179 23.7067 101.552 23.36V21.16C100.886 21.24 100.326 21.3467 99.8723 21.48C99.4189 21.6133 99.0523 21.7667 98.7723 21.94C98.4923 22.1 98.2923 22.2867 98.1723 22.5C98.0523 22.7133 97.9923 22.94 97.9923 23.18C97.9923 23.62 98.1256 23.94 98.3923 24.14C98.6589 24.34 98.9989 24.44 99.4123 24.44ZM106.255 26V16.18H108.155L108.315 17.92H108.395C108.742 17.28 109.162 16.7933 109.655 16.46C110.148 16.1133 110.655 15.94 111.175 15.94C111.642 15.94 112.015 16.0067 112.295 16.14L111.895 18.14C111.722 18.0867 111.562 18.0467 111.415 18.02C111.268 17.9933 111.088 17.98 110.875 17.98C110.488 17.98 110.082 18.1333 109.655 18.44C109.228 18.7333 108.862 19.2533 108.555 20V26H106.255ZM116.826 26.24C116.253 26.24 115.766 26.1533 115.366 25.98C114.979 25.8067 114.659 25.5667 114.406 25.26C114.166 24.94 113.986 24.5667 113.866 24.14C113.759 23.7 113.706 23.2133 113.706 22.68V18H112.306V16.28L113.826 16.18L114.106 13.5H116.026V16.18H118.526V18H116.026V22.68C116.026 23.8267 116.486 24.4 117.406 24.4C117.579 24.4 117.753 24.38 117.926 24.34C118.113 24.3 118.279 24.2467 118.426 24.18L118.826 25.88C118.559 25.9733 118.253 26.0533 117.906 26.12C117.573 26.2 117.213 26.24 116.826 26.24ZM122.193 26.24C121.327 26.24 120.627 25.98 120.093 25.46C119.56 24.9267 119.293 24.2267 119.293 23.36C119.293 22.84 119.4 22.38 119.613 21.98C119.84 21.5667 120.187 21.2133 120.653 20.92C121.133 20.6267 121.733 20.38 122.453 20.18C123.187 19.98 124.06 19.8267 125.073 19.72C125.06 19.4667 125.02 19.2267 124.953 19C124.9 18.76 124.8 18.5533 124.653 18.38C124.52 18.1933 124.34 18.0533 124.113 17.96C123.887 17.8533 123.607 17.8 123.273 17.8C122.793 17.8 122.32 17.8933 121.853 18.08C121.4 18.2667 120.953 18.4933 120.513 18.76L119.673 17.22C120.22 16.8733 120.833 16.5733 121.513 16.32C122.193 16.0667 122.927 15.94 123.713 15.94C124.94 15.94 125.853 16.3067 126.453 17.04C127.067 17.76 127.373 18.8067 127.373 20.18V26H125.473L125.313 24.92H125.233C124.793 25.2933 124.32 25.6067 123.813 25.86C123.32 26.1133 122.78 26.24 122.193 26.24ZM122.933 24.44C123.333 24.44 123.693 24.3467 124.013 24.16C124.347 23.9733 124.7 23.7067 125.073 23.36V21.16C124.407 21.24 123.847 21.3467 123.393 21.48C122.94 21.6133 122.573 21.7667 122.293 21.94C122.013 22.1 121.813 22.2867 121.693 22.5C121.573 22.7133 121.513 22.94 121.513 23.18C121.513 23.62 121.647 23.94 121.913 24.14C122.18 24.34 122.52 24.44 122.933 24.44ZM134.876 26.24C134.116 26.24 133.429 26.1333 132.816 25.92C132.216 25.6933 131.696 25.34 131.256 24.86C130.829 24.38 130.496 23.7667 130.256 23.02C130.029 22.26 129.916 21.34 129.916 20.26V12.92H132.236V20.44C132.236 21.1467 132.296 21.7467 132.416 22.24C132.549 22.72 132.729 23.1067 132.956 23.4C133.196 23.6933 133.476 23.9067 133.796 24.04C134.116 24.16 134.476 24.22 134.876 24.22C135.276 24.22 135.643 24.16 135.976 24.04C136.309 23.9067 136.596 23.6933 136.836 23.4C137.076 23.1067 137.263 22.72 137.396 22.24C137.529 21.7467 137.596 21.1467 137.596 20.44V12.92H139.816V20.26C139.816 21.34 139.703 22.26 139.476 23.02C139.249 23.7667 138.916 24.38 138.476 24.86C138.049 25.34 137.529 25.6933 136.916 25.92C136.316 26.1333 135.636 26.24 134.876 26.24ZM142.732 26V12.92H146.852C147.572 12.92 148.238 12.9867 148.852 13.12C149.478 13.2533 150.018 13.48 150.472 13.8C150.925 14.12 151.278 14.54 151.532 15.06C151.785 15.5667 151.912 16.2 151.912 16.96C151.912 17.68 151.785 18.3067 151.532 18.84C151.278 19.3733 150.925 19.82 150.472 20.18C150.032 20.5267 149.505 20.7867 148.892 20.96C148.292 21.12 147.638 21.2 146.932 21.2H145.052V26H142.732ZM145.052 19.34H146.752C148.672 19.34 149.632 18.5467 149.632 16.96C149.632 16.1333 149.378 15.5667 148.872 15.26C148.378 14.94 147.645 14.78 146.672 14.78H145.052V19.34Z" fill="white"/>
</svg>

<svg width="164" height="37" fill="none" xmlns="http://www.w3.org/2000/svg"><path fill-rule="evenodd" clip-rule="evenodd" d="M38.26 3.062c-.94-.472-2.104-.61-3.404-.374-.801.146-1.656.436-2.542.877-.851.426-1.666.959-2.437 1.577l3.13 1.574a13.718 13.718 0 012.437-1.577c.886-.442 1.74-.732 2.542-.878 1.3-.237 2.463-.097 3.404.375l-3.13-1.574z" fill="#F0A72E"/><mask id="a" maskUnits="userSpaceOnUse" x="0" y="0" width="31" height="35"><path fill-rule="evenodd" clip-rule="evenodd" d="M0 .61h30.303v33.625H0V.609z" fill="#fff"/></mask><g mask="url(#a)"><path fill-rule="evenodd" clip-rule="evenodd" d="M27.173 1.173C26.087.627 24.74.467 23.238.74c-.928.169-1.916.504-2.942 1.016-1.706.853-3.308 2.091-4.698 3.556-2.556 2.695-4.392 6.156-4.836 9.377-.767.15-1.59.434-2.433.855-1.47.735-2.851 1.801-4.048 3.062-2.565 2.7-4.29 6.291-4.281 9.417.008 2.28.937 3.884 2.437 4.638l3.13 1.574c-1.501-.755-2.43-2.36-2.437-4.639-.01-3.126 1.716-6.716 4.28-9.416 1.197-1.262 2.577-2.328 4.05-3.063a9.6 9.6 0 012.431-.855c.445-3.221 2.281-6.681 4.837-9.377 1.39-1.464 2.99-2.703 4.698-3.556 1.025-.512 2.013-.847 2.941-1.016 1.504-.274 2.848-.113 3.935.433l-3.13-1.573z" fill="#F0A72E"/></g><path fill-rule="evenodd" clip-rule="evenodd" d="M23.426 3.33c4.84-2.418 8.863-.885 9.581 3.386a13.718 13.718 0 012.437-1.577c4.614-2.304 8.368-.453 8.383 4.132.015 4.586-3.715 10.175-8.33 12.48L11.514 33.729c-4.62 2.308-8.369.454-8.384-4.133-.015-4.586 3.709-10.17 8.33-12.478a9.635 9.635 0 012.432-.855c.686-4.973 4.686-10.512 9.535-12.934z" fill="#FFCA00"/><path fill-rule="evenodd" clip-rule="evenodd" d="M62.705 5.314c-.94-.472-2.103-.61-3.403-.374-.803.146-1.656.436-2.543.877-.85.425-1.665.959-2.437 1.577l3.13 1.574A13.645 13.645 0 0159.89 7.39c.885-.443 1.74-.732 2.54-.878 1.302-.237 2.464-.097 3.404.375l-3.129-1.574zM51.614 3.42c-1.086-.546-2.432-.707-3.934-.434-.929.17-1.915.504-2.939 1.015-1.7.85-3.298 2.085-4.685 3.547-2.558 2.698-4.397 6.165-4.842 9.39a9.666 9.666 0 00-2.44.858c-1.469.733-2.848 1.8-4.045 3.06-2.564 2.7-4.294 6.293-4.284 9.418.008 2.28.939 3.882 2.438 4.637l3.13 1.572c-1.5-.753-2.431-2.356-2.439-4.635-.01-3.126 1.72-6.718 4.284-9.418 1.198-1.261 2.577-2.327 4.045-3.06a9.699 9.699 0 012.44-.86c.446-3.225 2.285-6.69 4.843-9.388 1.387-1.463 2.984-2.698 4.685-3.548 1.023-.511 2.01-.846 2.938-1.014 1.503-.274 2.848-.113 3.935.433l-3.13-1.573z" fill="#D43E3E"/><path fill-rule="evenodd" clip-rule="evenodd" d="M47.87 5.574c4.842-2.417 8.865-.878 9.582 3.394A13.693 13.693 0 0159.89 7.39c4.614-2.304 8.368-.454 8.383 4.132.015 4.586-3.715 10.175-8.329 12.48L35.958 35.98c-4.613 2.304-8.368.453-8.383-4.133-.015-4.586 3.715-10.175 8.329-12.48a9.75 9.75 0 012.44-.858c.685-4.971 4.686-10.518 9.527-12.936z" fill="#FA7564"/><path d="M81.94 26V12.92h2.62l2.32 6.4c.146.413.286.84.42 1.28.133.427.273.853.42 1.28h.08c.146-.427.28-.853.4-1.28.133-.44.273-.867.42-1.28l2.26-6.4h2.64V26h-2.14v-5.98c0-.307.006-.64.02-1l.08-1.08c.026-.373.06-.733.1-1.08.04-.36.073-.693.1-1h-.08l-1.06 3.04-2.14 5.88h-1.38l-2.16-5.88-1.04-3.04h-.08c.026.307.053.64.08 1 .04.347.073.707.1 1.08.04.36.066.72.08 1.08.026.36.04.693.04 1V26h-2.1zm16.732.24c-.866 0-1.566-.26-2.1-.78-.533-.533-.8-1.233-.8-2.1 0-.52.107-.98.32-1.38.227-.413.574-.767 1.04-1.06.48-.293 1.08-.54 1.8-.74.734-.2 1.607-.353 2.62-.46a3.091 3.091 0 00-.12-.72 1.412 1.412 0 00-.3-.62 1.211 1.211 0 00-.54-.42c-.226-.107-.506-.16-.84-.16-.48 0-.953.093-1.42.28-.453.187-.9.413-1.34.68l-.84-1.54a9.832 9.832 0 011.84-.9 6.252 6.252 0 012.2-.38c1.227 0 2.14.367 2.74 1.1.614.72.92 1.767.92 3.14V26h-1.9l-.16-1.08h-.08a7.08 7.08 0 01-1.42.94 3.493 3.493 0 01-1.62.38zm.74-1.8c.4 0 .76-.093 1.08-.28a5.631 5.631 0 001.06-.8v-2.2a10.52 10.52 0 00-1.68.32c-.453.133-.82.287-1.1.46-.28.16-.48.347-.6.56-.12.213-.18.44-.18.68 0 .44.134.76.4.96.267.2.607.3 1.02.3zm6.843 1.56v-9.82h1.9l.16 1.74h.08c.347-.64.767-1.127 1.26-1.46.493-.347 1-.52 1.52-.52.467 0 .84.067 1.12.2l-.4 2a4.179 4.179 0 00-.48-.12 3.084 3.084 0 00-.54-.04c-.387 0-.793.153-1.22.46-.427.293-.793.813-1.1 1.56v6h-2.3zm10.571.24c-.573 0-1.06-.087-1.46-.26a2.6 2.6 0 01-.96-.72c-.24-.32-.42-.693-.54-1.12a6.182 6.182 0 01-.16-1.46V18h-1.4v-1.72l1.52-.1.28-2.68h1.92v2.68h2.5V18h-2.5v4.68c0 1.147.46 1.72 1.38 1.72.173 0 .347-.02.52-.06.187-.04.353-.093.5-.16l.4 1.7a6.549 6.549 0 01-.92.24c-.333.08-.693.12-1.08.12zm5.367 0c-.866 0-1.566-.26-2.1-.78-.533-.533-.8-1.233-.8-2.1 0-.52.107-.98.32-1.38.227-.413.574-.767 1.04-1.06.48-.293 1.08-.54 1.8-.74.734-.2 1.607-.353 2.62-.46a3.091 3.091 0 00-.12-.72 1.412 1.412 0 00-.3-.62 1.211 1.211 0 00-.54-.42c-.226-.107-.506-.16-.84-.16-.48 0-.953.093-1.42.28a9.76 9.76 0 00-1.34.68l-.84-1.54a9.844 9.844 0 011.84-.9 6.255 6.255 0 012.2-.38c1.227 0 2.14.367 2.74 1.1.614.72.92 1.767.92 3.14V26h-1.9l-.16-1.08h-.08a7.08 7.08 0 01-1.42.94 3.492 3.492 0 01-1.62.38zm.74-1.8c.4 0 .76-.093 1.08-.28a5.631 5.631 0 001.06-.8v-2.2c-.666.08-1.226.187-1.68.32-.453.133-.82.287-1.1.46-.28.16-.48.347-.6.56-.12.213-.18.44-.18.68 0 .44.134.76.4.96.267.2.607.3 1.02.3zm11.943 1.8c-.76 0-1.447-.107-2.06-.32-.6-.227-1.12-.58-1.56-1.06-.427-.48-.76-1.093-1-1.84-.227-.76-.34-1.68-.34-2.76v-7.34h2.32v7.52c0 .707.06 1.307.18 1.8.133.48.313.867.54 1.16.24.293.52.507.84.64.32.12.68.18 1.08.18s.767-.06 1.1-.18c.333-.133.62-.347.86-.64.24-.293.427-.68.56-1.16.133-.493.2-1.093.2-1.8v-7.52h2.22v7.34c0 1.08-.113 2-.34 2.76-.227.747-.56 1.36-1 1.84-.427.48-.947.833-1.56 1.06-.6.213-1.28.32-2.04.32zm7.856-.24V12.92h4.12c.72 0 1.386.067 2 .2.626.133 1.166.36 1.62.68.453.32.806.74 1.06 1.26.253.507.38 1.14.38 1.9 0 .72-.127 1.347-.38 1.88a3.74 3.74 0 01-1.06 1.34c-.44.347-.967.607-1.58.78-.6.16-1.254.24-1.96.24h-1.88V26h-2.32zm2.32-6.66h1.7c1.92 0 2.88-.793 2.88-2.38 0-.827-.254-1.393-.76-1.7-.494-.32-1.227-.48-2.2-.48h-1.62v4.56z" fill="#fff"/></svg>
